images/Apollox-logo.svg

<svg width="354" height="61" viewBox="0 0 354 61" fill="none" xmlns="http://www.w3.org/2000/svg">
<path fill-rule="evenodd" clip-rule="evenodd" d="M74.6 46.0746L93.3878 3.25644C93.6969 2.55014 94.206 1.94965 94.8521 1.52862C95.4981 1.10765 96.2533 0.884561 97.0242 0.886742H108.721L128.43 46.0867C128.473 46.1801 128.492 46.283 128.485 46.3856C128.478 46.4883 128.444 46.5874 128.387 46.6734C128.331 46.7596 128.253 46.8299 128.162 46.8778C128.071 46.9257 127.97 46.9496 127.867 46.9473H118.988C118.87 46.9477 118.754 46.9135 118.655 46.8489C118.556 46.7843 118.478 46.6921 118.43 46.5837L114.491 38.0867C114.442 37.9795 114.364 37.8885 114.265 37.825C114.166 37.7616 114.051 37.7282 113.933 37.7291H89.1939C89.0763 37.7282 88.9612 37.7616 88.8618 37.825C88.763 37.8885 88.6848 37.9795 88.6363 38.0867L84.6969 46.5655C84.6497 46.6739 84.5715 46.7661 84.4727 46.8307C84.3733 46.8953 84.2575 46.9296 84.1394 46.9291H75.1636C75.0612 46.931 74.9606 46.907 74.8703 46.8594C74.78 46.8118 74.703 46.7421 74.6466 46.6569C74.5903 46.5716 74.5569 46.4736 74.5485 46.3718C74.5406 46.2699 74.5582 46.1677 74.6 46.0746ZM109.8 29.5595C109.901 29.5609 110.001 29.5368 110.091 29.4895C110.181 29.4422 110.257 29.3732 110.313 29.2888C110.369 29.2044 110.403 29.1073 110.412 29.0064C110.421 28.9054 110.404 28.8038 110.364 28.711L102.158 9.10493C102.111 8.99329 102.033 8.8979 101.933 8.83099C101.833 8.76402 101.715 8.72856 101.594 8.72917C101.473 8.72856 101.355 8.76402 101.255 8.83099C101.155 8.8979 101.076 8.99329 101.03 9.10493L92.8242 28.711C92.786 28.8012 92.7703 28.8994 92.7782 28.9972C92.786 29.0949 92.8175 29.1892 92.8703 29.272C92.9224 29.3549 92.9939 29.4238 93.0794 29.4727C93.1642 29.5218 93.2594 29.5495 93.3575 29.5534L93.3878 29.5595H109.8ZM132.728 60.8867C132.567 60.8867 132.413 60.8231 132.299 60.7091C132.185 60.5952 132.121 60.4407 132.121 60.2801V18.1637C132.134 17.2667 132.502 16.4115 133.146 15.7858C133.789 15.1601 134.655 14.815 135.553 14.8264H153.367C159.141 14.8264 163.648 16.2078 166.887 18.9706C170.126 21.7334 171.515 25.6167 171.515 30.8511C171.515 36.1299 170.126 40.2661 166.887 43.0289C163.648 45.7917 159.141 46.9304 153.367 46.9304H141.827V60.2801C141.827 60.4407 141.763 60.5952 141.649 60.7091C141.535 60.8231 141.381 60.8867 141.219 60.8867H132.728ZM153.367 22.0469H141.827V39.9465H153.367C156.173 39.9465 158.319 39.2042 159.805 37.7197C161.291 36.2352 162.034 33.9841 162.034 30.9664C162.034 27.9932 161.291 25.7684 159.805 24.2919C158.319 22.8155 156.173 22.0672 153.367 22.0469ZM180.492 42.803C183.648 45.5659 188.047 46.9473 193.686 46.9473H200.859C206.499 46.9473 210.897 45.5659 214.053 42.803C217.21 40.0401 218.788 35.978 218.788 30.6169C218.788 25.2115 217.21 21.1273 214.053 18.3644C210.897 15.6015 206.499 14.2201 200.859 14.2201H193.686C188.047 14.2161 183.648 15.5975 180.492 18.3644C177.336 21.1314 175.757 25.2155 175.757 30.6169C175.757 35.978 177.336 40.0401 180.492 42.803ZM200.859 39.779H193.686V39.767C190.952 39.779 188.859 39.0361 187.409 37.5382C185.958 36.0402 185.233 33.7332 185.233 30.6169C185.233 27.4523 185.958 25.1232 187.409 23.6292C188.859 22.1353 190.954 21.3884 193.692 21.3884H200.865C203.596 21.3844 205.688 22.1313 207.142 23.6292C208.597 25.1272 209.325 27.4564 209.325 30.6169C209.316 33.7372 208.587 36.0442 207.136 37.5382C205.686 39.0321 203.593 39.779 200.859 39.779ZM276.716 46.9473C271.077 46.9473 266.679 45.5659 263.522 42.803C260.366 40.0401 258.788 35.978 258.788 30.6169C258.788 25.2155 260.366 21.1314 263.522 18.3644C266.679 15.5975 271.077 14.2161 276.716 14.2201H283.89C289.529 14.2201 293.927 15.6015 297.084 18.3644C300.24 21.1273 301.818 25.2115 301.818 30.6169C301.818 35.978 300.24 40.0401 297.084 42.803C293.927 45.5659 289.529 46.9473 283.89 46.9473H276.716ZM276.716 39.779H283.89C286.623 39.779 288.716 39.0321 290.167 37.5382C291.617 36.0442 292.347 33.7372 292.355 30.6169C292.355 27.4564 291.627 25.1272 290.173 23.6292C288.718 22.1313 286.626 21.3844 283.896 21.3884H276.722C273.984 21.3884 271.89 22.1353 270.439 23.6292C268.988 25.1232 268.263 27.4523 268.263 30.6169C268.263 33.7332 268.988 36.0402 270.439 37.5382C271.89 39.0361 273.982 39.779 276.716 39.767V39.779ZM243.208 46.7707C243.321 46.8838 243.476 46.9473 243.636 46.9473H252.121C252.282 46.9473 252.436 46.8838 252.55 46.7707C252.664 46.6577 252.727 46.5044 252.727 46.3445V0.889902H246.667C245.742 0.85069 244.84 1.17778 244.159 1.79948C243.477 2.42111 243.071 3.28651 243.03 4.20554V46.3445C243.03 46.5044 243.094 46.6577 243.208 46.7707ZM225.454 46.9473C225.294 46.9473 225.139 46.8838 225.026 46.7707C224.912 46.6577 224.848 46.5044 224.848 46.3445V4.20554C224.889 3.28651 225.295 2.42111 225.977 1.79948C226.659 1.17778 227.561 0.85069 228.485 0.889902H234.545V46.3445C234.545 46.5044 234.482 46.6577 234.368 46.7707C234.254 46.8838 234.1 46.9473 233.939 46.9473H225.454ZM318.677 24.9569L305.454 46.9473H315.796L326.979 29.8999C327.219 29.5361 327.531 29.2401 327.892 29.036C328.253 28.8318 328.652 28.7251 329.056 28.7244H329.71C330.114 28.7251 330.513 28.8318 330.874 29.036C331.234 29.2401 331.548 29.5361 331.788 29.8999L342.971 46.9473H353.333L340.121 24.9569C339.786 24.4589 339.605 23.8527 339.605 23.2298C339.605 22.6069 339.786 22.0009 340.121 21.5028L353.333 0.88675H343.04L331.803 17.9944C331.567 18.3646 331.256 18.6668 330.894 18.8764C330.533 19.086 330.133 19.1969 329.726 19.2001H329.073C328.666 19.1969 328.265 19.086 327.904 18.8764C327.543 18.6668 327.231 18.3646 326.995 17.9944L315.757 0.88675H305.454L318.677 21.5028C319.011 22.0017 319.191 22.6074 319.191 23.2298C319.191 23.8523 319.011 24.4581 318.677 24.9569Z" fill="white"/>
<path fill-rule="evenodd" clip-rule="evenodd" d="M55.0115 14.1893C50.7594 23.9731 43.8041 32.3359 34.9652 38.2927C26.1262 44.2496 15.7717 47.5523 5.12125 47.8121C2.91701 44.5309 1.37962 40.8472 0.596831 36.971C-0.185956 33.0949 -0.198865 29.1024 0.558892 25.2213C1.31665 21.3401 2.83022 17.6466 5.01319 14.3513C7.19616 11.0561 10.0057 8.22379 13.2816 6.01609C16.5574 3.8084 20.2353 2.26852 24.1053 1.48452C27.9753 0.70046 31.9616 0.687551 35.8366 1.44646C39.7115 2.20543 43.3993 3.72143 46.689 5.90785C49.9794 8.09427 52.8072 10.9083 55.0115 14.1893ZM56.9697 14.0018V10.2681C56.9703 10.2294 56.98 10.1914 56.9993 10.1582C57.0181 10.1249 57.046 10.0976 57.0781 10.0791L60.2933 8.18858C60.3254 8.16943 60.3612 8.15936 60.3981 8.15943C60.4345 8.15949 60.4703 8.16955 60.5024 8.18876C60.5339 8.20791 60.56 8.23549 60.5781 8.26864C60.5963 8.30179 60.606 8.33936 60.606 8.37761V12.1114C60.6054 12.1495 60.5957 12.187 60.5775 12.2202C60.5593 12.2532 60.5333 12.2809 60.5018 12.3004L57.2824 14.1909C57.2503 14.21 57.2145 14.2201 57.1775 14.22C57.1412 14.22 57.1054 14.2099 57.0733 14.1907C57.0418 14.1715 57.0157 14.144 56.9975 14.1108C56.9793 14.0777 56.9697 14.0401 56.9697 14.0018ZM54.3836 48.3C58.0357 43.186 60 37.0559 60 30.7683C60.0012 26.1343 58.929 21.5634 56.8678 17.4149C47.4757 29.5707 41.5224 44.0339 39.6327 59.2873C45.5737 57.2558 50.7315 53.4139 54.3836 48.3Z" fill="white"/>
</svg>

<svg xmlns="http://www.w3.org/2000/svg" width="354" height="61" fill="none"><path fill="#fff" fill-rule="evenodd" d="M74.6 46.075 93.388 3.256a3.955 3.955 0 0 1 3.636-2.37h11.697l19.709 45.2a.594.594 0 0 1-.043.587.603.603 0 0 1-.52.274h-8.879a.606.606 0 0 1-.558-.363l-3.939-8.497a.613.613 0 0 0-.558-.358h-24.74a.609.609 0 0 0-.557.358l-3.94 8.478a.607.607 0 0 1-.557.364h-8.975a.604.604 0 0 1-.564-.854Zm35.2-16.516a.607.607 0 0 0 .564-.848l-8.206-19.606a.603.603 0 0 0-.564-.376.603.603 0 0 0-.564.376L92.824 28.71a.608.608 0 0 0 .534.842l.03.006H109.8Zm22.928 31.328a.606.606 0 0 1-.607-.607V18.164a3.39 3.39 0 0 1 3.432-3.337h17.814c5.774 0 10.281 1.38 13.52 4.144 3.239 2.762 4.628 6.646 4.628 11.88 0 5.279-1.389 9.415-4.628 12.178-3.239 2.763-7.746 3.901-13.52 3.901h-11.54v13.35a.607.607 0 0 1-.608.607h-8.491Zm20.639-38.84h-11.54v17.9h11.54c2.806 0 4.952-.743 6.438-2.227 1.486-1.485 2.229-3.736 2.229-6.754 0-2.973-.743-5.198-2.229-6.674-1.486-1.477-3.632-2.225-6.438-2.245Zm27.125 20.756c3.156 2.763 7.555 4.144 13.194 4.144h7.173c5.64 0 10.038-1.381 13.194-4.144 3.157-2.763 4.735-6.825 4.735-12.186 0-5.405-1.578-9.49-4.735-12.253-3.156-2.763-7.554-4.144-13.194-4.144h-7.173c-5.639-.004-10.038 1.377-13.194 4.144-3.156 2.767-4.735 6.851-4.735 12.253 0 5.361 1.579 9.423 4.735 12.186Zm20.367-3.024h-7.173v-.012c-2.734.012-4.827-.73-6.277-2.229-1.451-1.498-2.176-3.805-2.176-6.921 0-3.165.725-5.494 2.176-6.988 1.45-1.494 3.545-2.24 6.283-2.24h7.173c2.731-.005 4.823.742 6.277 2.24 1.455 1.498 2.183 3.827 2.183 6.988-.009 3.12-.738 5.427-2.189 6.921-1.45 1.494-3.543 2.241-6.277 2.241Zm75.857 7.168c-5.639 0-10.037-1.381-13.194-4.144-3.156-2.763-4.734-6.825-4.734-12.186 0-5.402 1.578-9.486 4.734-12.253 3.157-2.767 7.555-4.148 13.194-4.144h7.174c5.639 0 10.037 1.381 13.194 4.144 3.156 2.763 4.734 6.848 4.734 12.253 0 5.361-1.578 9.423-4.734 12.186-3.157 2.763-7.555 4.144-13.194 4.144h-7.174Zm0-7.168h7.174c2.733 0 4.826-.747 6.277-2.24 1.45-1.495 2.18-3.802 2.188-6.922 0-3.16-.728-5.49-2.182-6.988-1.455-1.498-3.547-2.245-6.277-2.24h-7.174c-2.738 0-4.832.746-6.283 2.24-1.451 1.494-2.176 3.823-2.176 6.988 0 3.116.725 5.423 2.176 6.921 1.451 1.498 3.543 2.241 6.277 2.229v.012Zm-33.508 6.992a.606.606 0 0 0 .428.176h8.485a.609.609 0 0 0 .429-.176.599.599 0 0 0 .177-.427V.89h-6.06a3.5 3.5 0 0 0-2.508.91 3.465 3.465 0 0 0-1.129 2.406v42.138a.6.6 0 0 0 .178.427Zm-17.754.176a.606.606 0 0 1-.606-.603V4.206a3.465 3.465 0 0 1 1.129-2.407 3.503 3.503 0 0 1 2.508-.91h6.06v45.456c0 .16-.063.313-.177.426a.609.609 0 0 1-.429.176h-8.485Zm93.223-21.99-13.223 21.99h10.342L326.979 29.9c.24-.364.552-.66.913-.864a2.37 2.37 0 0 1 1.164-.312h.654c.404.001.803.108 1.164.312.36.204.674.5.914.864l11.183 17.047h10.362l-13.212-21.99a3.103 3.103 0 0 1-.516-1.727c0-.623.181-1.23.516-1.727L353.333.887H343.04l-11.237 17.107c-.236.37-.547.673-.909.882-.361.21-.761.32-1.168.324h-.653a2.362 2.362 0 0 1-1.169-.324 2.68 2.68 0 0 1-.909-.882L315.757.887h-10.303l13.223 20.616c.334.499.514 1.104.514 1.727 0 .622-.18 1.228-.514 1.727ZM55.011 14.19a55.962 55.962 0 0 1-20.046 24.103 55.836 55.836 0 0 1-29.844 9.52A30.14 30.14 0 0 1 .56 25.22a30.14 30.14 0 0 1 4.454-10.87 30.09 30.09 0 0 1 8.269-8.335 30.04 30.04 0 0 1 22.555-4.57 30.037 30.037 0 0 1 10.852 4.462c3.29 2.186 6.118 5 8.322 8.281Zm1.959-.188v-3.734c0-.039.01-.077.03-.11a.213.213 0 0 1 .078-.079l3.215-1.89a.203.203 0 0 1 .285.08c.018.033.028.07.028.109v3.733c0 .038-.01.076-.029.11a.218.218 0 0 1-.075.08l-3.22 1.89a.203.203 0 0 1-.284-.08.226.226 0 0 1-.028-.11ZM54.384 48.3A30.168 30.168 0 0 0 60 30.768a29.994 29.994 0 0 0-3.132-13.353 85.725 85.725 0 0 0-17.235 41.872A30.092 30.092 0 0 0 54.383 48.3Z" clip-rule="evenodd"/></svg>
